X:258
T: ES WAR EIN REICHER KAUFMANNSSOHN
N: E1398
O: Europa, Mitteleuropa, Deutschland, Franken, Wuerzburg
R: Staende -, Soldaten - Lied
M: 6/8
L: 1/16
K: F
FA | c4c2c4c2 | c4A2A4
F2 | d3dd2f2e2d2 | d2c2c2A4
c2 | c3BB2G4
d2 | d3cc2A4cc | c4z6
c2 | c3BB2G4
d2 | d3cc2A4cc | c4z6

